X:1
T:Pr\"aludium und Fughetta
T:Pr\"aludium und Fughetta
T:BWV 902a
T:Johann Sebastian Bach
C:Johann Sebastian Bach
%%score 1 2 3
L:1/8
M:3/4
K:G
V:1 treble 
V:2 treble 
V:3 bass 
V:1
 G/B/A/G/ d/c/B/A/ G/B/A/G/ | x4 G/B/A/G/ | x4 x2 | fddddd | fccccc | accccc | %6
 B/c/B/c/ B/c/B/c/ B/c/B/e/ | A/B/A/B/ A/B/A/B/ A/B/A/e/ | A/B/A/B/ A/B/A/B/ A/c/B/A/ | G2 x4 | %10
 F2 x4 | E2 x4 | Fc/B/ cAFD | B/G/A/B/ c/d/e/f/ g/a/b/g/ | e_bagfg | x2 _e/f/a/c'/ z2 | %16
 G/B/A/G/ d/c/B/A/ G/B/A/G/ | x4 G/B/A/G/ | x4 G/B/A/G/ | ^cGGGGG | ^cGGGGG | cFFFFF | B=FFFFF | %23
 B2 x2 A/B/A/G/ | [Ac]2 z/ B/A/G/ F/G/F/E/ | cA z/ E/F/G/ A/G/A/B/ | x4 x2 | %27
 G/B/A/G/ d/c/B/A/ G/B/A/G/ | x4 x2 | x4 x2 | [fa]2 z z/ [cf]/ [dg]2 | z z/ [ea]/ [Bg]2 [Af]2 | %32
 [Bdg]6 |][M:3/8] z/ d/B/d/g/d/ | B/d/G/d/B/d/ | e/c/A/c/F/A/ | d/B/G/B/E/G/ | c/A/F/A/D/F/ | %38
 B/A/G/A/B/c/ | d/A/B/^c/d/e/ | f/e/d/e/f/g/ | a z a | Magg | gff | fee | e/g/f/e/d/e/ | %46
 f/a/g/f/e/d/ | g z z | z dd | ccc | BBB | AAA | GGG | FFF | EEE | F z z | z aa | a/d/B/d/g/d/ | %58
 B/d/G/d/B/d/ | [Be] z z | z bb | b/e/c/e/a/e/ | c/e/A/e/c/e/ | f z z | z ff | fe^d | egg | gff | %68
 fee | ^d/e/ff | fge | e=d/^c/d/e/ | f/e/d/f/b/f/ | d/f/B/f/d/f/ | g/e/^c/e/A/c/ | f/d/B/d/G/B/ | %76
 e/^c/^A/c/F/c/ | d/f/B/d/f/d/ | B/d/F/B/d/B/ | ^G/B/E/G/B/G/ | E/^G/B,/E/G/D/ | =C/E/A,/C/E/C/ | %82
 A,/C/E,/A,/C/G,/ | F,/A,/D,/F,/A,/F,/ | x2 x | z gf | gdd | dcc | cBB | BAA | [DA]E/F/G/A/ | %91
 B/G/ A2 | [DG]3 |] %93
V:2
 x4 x2 | g/B/A/G/ d/c/B/A/ x2 | g/f/e/d/ ^c/b/a/g/ f/e/d/c/ | dFFFFF | =cFFFFF | fAAAAA | GGGGGG | %7
 GGGGGG | FFFF F2 | z/ F/E/^D/ E2 z/ A/c/e/ | z/ E/D/^C/ D2 z/ G/B/d/ | z/ D/=C/B,/ C2 z/ E/A/c/ | %12
 x4 x2 | x4 x2 | ^C/E/D/C/ G/^F/E/D/ C/_B/A/G/ | D/F/A/=c/ x4 | x4 x2 | g/B/A/G/ d/c/B/A/ x2 | %18
 g/B/A/G/ d/c/B/A/ x2 | GEEEEE | GEEEEE | FDDDDD | =FDDDDD | E2 z/ d/c/B/ x2 | ^F2 x4 | D2 x4 | %26
 c/B/A/G/ F/e/d/c/ B/A/G/F/ | x4 x2 | ^c/e/d/c/ g/f/e/d/ c/e/d/c/ | f/a/g/f/ =c'/b/a/g/ f/g/a/g/ | %30
 c2 z z/ A/ B2 | z z/ c/ d4 | G6 |][M:3/8] x2 x | x2 x | x2 x | x2 x | x2 x | x2 x | x2 x | %40
 z/ G/F/A/d/A/ | F/A/D/A/F/A/ | B/G/E/G/^C/E/ | A/F/D/F/B,/D/ | G/E/^C/E/A,/C/ | F/E/D/E/F/G/ | %46
 A/D/E/F/G/A/ | B/A/G/A/B/c/ | dBB | BAA | AGG | GFF | FEE | EDD | D^CC | D z z | z [cf][cd] | %57
 [Bd]/ z/ z z | z D=F | E z z | z [d^g][de] | [ce]/ z/ z z | z CC | [F,B,] z z | z [A^d][AB] | %65
 [AB][GB][FA] | [EB][Be][Be] | [Ae][A=d][Ad] | [Gd][Gc][Gc] | [Ac][AB][AB] | [AB][GB][GB] | %71
 [FB] z z | x2 x | FDB, | E/G/A/G/F/E/ | D/F/G/F/E/D/ | ^C/E/F/E/D/C/ | x2 x | x2 x | x2 x | x2 x | %81
 x2 x | x2 x | x2 x | x2 x | z [Bd][Ac] | [Gd][GB][GB] | [EG][EA][EA] | [DF][DG][DG] | %89
 [CE][CF][CF] | B, z z | z z/ E/F/D/ | B,3 |] %93
V:3
 G,B,B,B,B,B, | F,B,B,B,B,B, | E,A,A,A,A,A, | D,/F,/E,/D,/ A,/G,/F,/E,/ D,/F,/E,/D,/ | %4
 D/F,/E,/D,/ A,/G,/F,/E,/ D,/F,/E,/D,/ | C/B,/A,/G,/ F,/E/D/C/ B,/A,/G,/F,/ | G,A,G,F,E,D, | %7
 ^C,B,,C,^D,E,C, | ^D,B,,D,F,D,B,, | E,2 z/ B,/G,/E,/ C,A, | D,2 z/ A,/F,/D,/ B,,G, | %11
 C,2 z/ G,/E,/C,/ A,,F, | D,/F,/E,/D,/ A,/G,/F,/E,/ D,/C/B,/A,/ | %13
 G,/B,/A,/G,/ D/C/B,/A,/ G,/=F/E/D/ | x4 x2 | x4 D,,2 | G,,G,G,G,G,G, | C,G,G,G,G,G, | %18
 D,G,G,G,G,G, | E,/G,/F,/E,/ _B,/A,/G,/F,/ E,/G,/F,/E,/ | %20
 A,/^C,/B,,/A,,/ E,/D,/C,/B,,/ A,,/C,/B,,/A,,/ | D,/F,/E,/D,/ A,/G,/F,/E,/ D,/F,/E,/D,/ | %22
 G,/B,,/A,,/G,,/ D,/C,/B,,/A,,/ G,,/B,,/A,,/G,,/ | C,/E,/D,/C,/ G,/=F,/E,/D,/ C,/D,/C,/B,,/ | %24
 A,,/C,/B,,/A,,/ E,/D,/C,/B,,/ A,,/B,,/A,,/G,,/ | %25
 F,,/A,,/G,,/F,,/ C,/B,,/A,,/G,,/ F,,/G,,/F,,/E,,/ | D,,/E,,/F,,/G,,/ A,,/B,,/C,/D,/ E,/F,/G,/A,/ | %27
 B,B,B,B,B,B, | _B,B,B,B,B,B, | A,A,A,A,A,A, | _E,2 z z/ E,/ D,2 | z z/ C,/ D,2 D,,2 | %32
 [G,,B,,D,G,]6 |][M:3/8] x2 x | x2 x | x2 x | x2 x | x2 x | x2 x | x2 x | x2 x | x2 x | x2 x | %43
 x2 x | x2 x | x2 x | x2 x | z/ D/B,/D/G/D/ | B,/D/G,/D/B,/D/ | E/C/A,/C/F,/A,/ | %50
 D/B,/G,/B,/E,/G,/ | C/A,/F,/A,/D,/F,/ | B,/A,/G,/A,/B,/^C/ | D/^C/B,/A,/G,/F,/ | %54
 G,/E,/A,/G,/F,/E,/ | D,/A,/F,/A,/D/A,/ | F,/A,/D,/A,/F,/A,/ | B, z z | z B,A, | %59
 ^G,/B,/G,/B,/E/B,/ | ^G,/B,/E,/B,/G,/B,/ | C z z | z [F,A,][E,A,] | ^D,/F,/D,/F,/B,/F,/ | %64
 ^D,/F,/B,,/F,/D,/F,/ | G,/B,/G,/B,/E/B,/ | G,/B,/E,/B,/G,/B,/ | C/A,/F,/A,/D,/F,/ | %68
 B,/G,/E,/G,/C,/E,/ | A,/F,/^D,/F,/B,,/F,/ | G,/F,/E,/F,/G,/A,/ | B,/F,/^G,/^A,/B,/^C/ | %72
 D/^C/B,/C/D/E/ | x2 x | x2 x | x2 x | x2 x | B,/F,/D,/F,/B,, | z D,B,, | E,/B,,/^G,,/B,,/E,, | %80
 z ^G,,E,, | A,,/E,,/C,,/E,,/A,,/E,,/ | C,B,,A,, | D,D,, z | D,/F,/A,,/D,/F,/C,/ | %85
 B,,/D,/B,,/D,/G,/D,/ | B,,/D,/G,,/D,/B,,/D,/ | E,/C,/A,,/C,/F,,/A,,/ | D,/B,,/G,,/B,,/E,,/G,,/ | %89
 C,/A,,/F,,/A,,/D,,/A,,/ | B,,/A,,/G,,/A,,/B,,/C,/ | D,C,D, | [G,,B,,D,G,]3 |] %93

